X: 6700
T: Ceo Ar A'gCnoc
R: reel
M: 4/4
K: Adorian
eABA ez dB|dGBG dGBd|eABA ez dB|GBdB BAA2|
eA~A2 ez dB|dGBG dGBd|eA~A2 ez dB|GBdB BAA2||
|:ea~a2 bz ab|~g2dB GA(3Bcd|ea~a2 bgab|gedB BAA2:|

